X:244
T:Traveller's Return
R:jig
Z:transcribed by Dave Marshall
M:6/8
K:Gmix
|: G,B,D GBd | g^fg d2e | f2c cBc | dcB c2A |
BdB GBd | g^fg d2e | fcA dcA | G3 G2D :|
|: G2g g^fg | ag^f gde | fAc fag | fef de^f |1
g2g g^fg | ag^f g2e | fcA dcA | G3 G2D :|2
g3 bag | g^fg d2e | fcA dcA | G3 G2D |
